X: 1
T:Who Fears to Speak of '98  "(Easter Week)"
M:C
L:1/8
Q:80
C:Arr. by Tadhg o'Crowley
S:Air
K:HP
A2|
{gf}g3f{g}e2f2|
{Gdc}d3B{g}A3G|
{g}A2B2{Gdc}d3e|  !
{Gdc}d6c2|
{g}B3{G}B2{gf}g3f|
{g}f2e2{g}e3c|  !
{Gdc}d3c{g}A3B|
{g}A6a2|
{g}a3gf2a2|  !
{gf}g3f{g}e3f|
{gf}g2f2{g}e2d2|
{g}B6A2|  !
{g}A6B2{Gdc}d3e|
{g}f2a2{g}a3A|
{g}A2B2{Gdc}d3e|  !
d6|]
